X:1
T: Lady Rachael Russell
C:William Marshall
R:Strathspey
Q: 128
K:F
M:4/4
L:1/16
|:F3F F2AB c2de f2A2|GG3 G3A B3c df3|F3F F2AB c2fg a2g2|fd3 c3A G3A Bd3|
F3F F2AB c2de f2A2|GG3 G3A B3c df3|F3F F2AB c2fg a2g2|fd3 c3A G3A Bd3|
cf3 Af3 cf3 dcBA|cf3 Af3 G3A Bd3|cf3 Af3 c3f a3g|fc3 dcBA G3A Bd3|
cf3 Af3 cf3 dcBA|cf3 Af3 G3A Bd3|((3b2a2g2) ((3a2g2f2) gfed dcBA|B3c dcBA GF3 F4:|
